X: 4498
T: Bonny Lass Of Albanie, The
R: reel
M: 4/4
K: Gmajor
G>A|B2 E>F E2 GA|B>ABc B2 GA|B2 E>F E2 FG|AGFE D2 G>F|
E3 D D2 B,D|G>AA>c B2 AG|A<Bd>e B3 A|G2 F>E E2 B>d|
e3 d cBAG|G>B/A/G/F/E/ D2 G>F|E3 D D2 B,D|
G>AA>c B3 A/G/|A<Bd>e B3 A|G2 F>E E2||

